X: 1
T: Slopes Of Slieve Gullion, The
M: 9/8
L: 1/8
R: slip jig
K: Gmaj
G2 B BAB dBG|ecA A2 G FED|G2 B BAB dBd|ede fef gdB|
G2 B BAB dBG|ecA A2 G FED|G2 B BAB dBd|1 ede fef gdB:|2 ede fef g2a|]
|:b2 g agf g2 e|gfg e2 g fed|ede fef g3|egf e2 d ega|
b2 g agf g2 e|gfg e2 g fed|ede fef g3|1 ede fef g2 a:|2 ede fef gdB|]
